material/.icons/material/file-document-edit.svg

<svg xmlns="http://www.w3.org/2000/svg" viewBox="0 0 24 24"><path d="M6 2c-1.11 0-2 .89-2 2v16a2 2 0 002 2h4v-1.91L12.09 18H6v-2h8.09l2-2H6v-2h12.09L20 10.09V8l-6-6H6m7 1.5L18.5 9H13V3.5m7.15 9.5a.55.55 0 00-.4.16l-1.02 1.02 2.09 2.08 1.02-1.01c.21-.22.21-.58 0-.79l-1.3-1.3a.544.544 0 00-.39-.16m-2.01 1.77L12 20.92V23h2.08l6.15-6.15-2.09-2.08z"/></svg>

<?xml version="1.0" encoding="UTF-8"?><!DOCTYPE svg PUBLIC "-//W3C//DTD SVG 1.1//EN" "http://www.w3.org/Graphics/SVG/1.1/DTD/svg11.dtd"><svg xmlns="http://www.w3.org/2000/svg" xmlns:xlink="http://www.w3.org/1999/xlink" version="1.1" id="mdi-file-document-edit" width="24" height="24" viewBox="0 0 24 24"><path d="M6,2C4.89,2 4,2.89 4,4V20A2,2 0 0,0 6,22H10V20.09L12.09,18H6V16H14.09L16.09,14H6V12H18.09L20,10.09V8L14,2H6M13,3.5L18.5,9H13V3.5M20.15,13C20,13 19.86,13.05 19.75,13.16L18.73,14.18L20.82,16.26L21.84,15.25C22.05,15.03 22.05,14.67 21.84,14.46L20.54,13.16C20.43,13.05 20.29,13 20.15,13M18.14,14.77L12,20.92V23H14.08L20.23,16.85L18.14,14.77Z" /></svg>
